X:1
T:An Ataireachd Ard
M:6/8
L:1/8
Q:80
C:arranged by Scott MacAulay
S:Gaelic Air
K:HP
|: {g}A | \
{e}G{d}Ad{g}f2e | \
{g}d2B{g}Bd{e}B |
{G}A4-A{g}A | \
{Gdc}de{g}f{gf}g2a | \
{f}g2{a}f{g}d{e}Bd |
{gef}e4-e{g}A | \
{e}G{d}Ad{g}f2e | \
{g}d2B{g}Bd{e}B |
{G}A4-A{g}A | \
{d}Ad{g}f{ag}a2B | \
{gf}g2B{g}A{d}B{G}A |
{g}A6 :|
